X:188
T: Rtsellied (2-92) S. 268
N: P0963
O: Lothringen
S: PINCK, Louis: Verklingende Weisen, Bd 2, Metz 1928]
R: ???, Rtsel]
M: 4/4
L: 1/16
K: G
D2D2G2G2G2 | G2B2B2B2B2d2c2B2 | B4A2
G2F4A2A2 | A4D2D2E2E2D2C2 | D4z2
D2D2D2E2D2 | C4C4E4F2E2 | D4z2
A2A2A2A2A2 | D4G2G2A2BAG2F2 | G4z2
D2D4G2G2 | G4B2B2B2d2c2B2 | B4A2
D2E4A2A2 | G4D2D2C4E4 | D4z2
D2D2D2E2D2 | C2C2E2E2G2G2F2E2 | D4z2
A2B2B2A2A2 | D4G2G2A2A2G2F2 | G4z2

@@@ Tune index: 7738
